src/svg/listener/deezer.svg

<svg viewBox="0 0 24 24" xmlns="http://www.w3.org/2000/svg"><path d="M17.37 5.47h4.33V8h-4.33Zm0 3.51h4.33v2.53h-4.33Zm0 3.51h4.33V15h-4.33ZM1.7 16H6v2.53H1.7Zm5.22 0h4.33v2.53H6.92Zm5.23 0h4.33v2.53h-4.33Zm5.22 0h4.33v2.53h-4.33Zm-5.22-3.51h4.33V15h-4.33Zm-5.23 0h4.33V15H6.92Zm0-3.49h4.33v2.53H6.92Z"/></svg>

<svg version="1.1" viewBox="0 0 24 24" xmlns="http://www.w3.org/2000/svg">
 <path d="M17.37,5.47H21.7V8H17.37Zm0,3.51H21.7v2.53H17.37Zm0,3.51H21.7V15H17.37ZM1.7,16H6v2.53H1.7Zm5.22,0h4.33v2.53H6.92Zm5.23,0h4.33v2.53H12.15Zm5.22,0H21.7v2.53H17.37Zm-5.22-3.51h4.33V15H12.15Zm-5.23,0h4.33V15H6.92ZM6.92,9h4.33v2.53H6.92Z"/>
</svg>
